X: 1
T: Fubu's Mazurka
C: Thierry Mirebeau
R: Mazurka
L: 1/8
M: 3/4
Z: ABC transcription by Verge Roller
K: Gm
r: 32
D2 | "Gm" G2 GA Bd | "Cm" c4 dc | "Gm" BG DG BG | "D" A^F DF AF |
"Gm" G2 GA Bd | "Cm" c4 dc | "D" BG DG A^F | "Gm" G4 :|
K: G
GA | "G" B2 BA GF | "C" E4 AB | "D" cA FA cA | "G" B2 GD GA |
"G" B2 BA GF | "C" E4 AB | "D" cA FD FA | "G" G4 :|
